X: 4
T: Dr. Ross's 50th Welcome To The Argyllshire Gathering
Z: malcombpiper
S: https://thesession.org/tunes/9053#setting19862
R: reel
M: 4/4
L: 1/8
K: Amix
A>ce c<Ac | e>fe c2 A | c<ee e>cA | B<dc B2 G |A>ce c<Ac | e>fe c2 A | c<ee e>dB | A3 A2 :|a>ga A>ce | e>ca c2 A | a>ed c<Ac | B<dc B2 G |1a>ga A>ce | e>ca c2 A | c<ee e>dB | A3 A2 :|2A>ce c<Ac | e>fe c2 A | c<ee e>dB | A3 A2 ||A>GA c2 d | e>fe c2 A | e>GA c2 e | B<dc B2 G |A>GA c2 d | e>fe c2 A | c<ee e>dB | A3 A2 :|a>GA e>GA | e>ca c2 A | c<ea e>cA | B<dg B2 G |a>GA e>GA | e>ca c2 A | c<ee e>dB | A3 A2 g |a>GA e>GA | e>ca c2 A | c<ea A>ce | B<dg B2 G |A>Bc B>cd | c>ea c2 A | c<ee e>dB | A3 A2 |]
